!!!OTL-incipit: VIVAT, ES LEB DAS PREUSSISCHE HEER BIS AN DER WELT IHR END
!!!ARE: Europa, Mitteleuropa, Deutschland
!!!SCT: Z0205
!!!TXL: @@DE
!!!YEM: Copyright 1995, estate of Helmut Schaffrath.
**kern	**text
*ICvox	*
*M4/4	*
*met(c)	*
*k[b-]	*
*F:	*
!LO:TX:a:t=Mündlich. Jn Anclam gehört.	!
!LO:TX:a:t=Soldatenlied.	!
{8fL	Vi-
8gJ	.
=1	=1
4a	-vat,
4a	es
4a	leb'
4a	das
=2	=2
4a	Preußſche
4cc	.
4a}	Heer
{4a	bis
=3	=3
4cc	an
4b-	der
4g	Welt
4cc	ihr
=4	=4
2a	End'.
4r}	.
{8fL	Vi-
8gJ	.
=5	=5
4a	-vat,
4a	es
4a	le-
4a	-be
=6	=6
4a	auch
4cc	ʒu-
4a}	-gleich
{4a	das
=7	=7
4cc	Col-
4b-	-berg-
4g	-ſche
4e	Reg'-
=8	=8
2f	-ment,
4r}	.
{8eL	das
8fJ	.
=9	=9
4a	aus-
4g	-er-
4g	-le-
8fL	-ſene
8gJ	.
=10	=10
2a	Corps,
4r}	.
{8eL	es
8fJ	.
=11	=11
4g	war
4g	ſchon
4g	oft
8fL	da-
8gJ	.
=12	=12
2a	-vor,
4r}	.
{8fL	in
8gJ	.
=13	=13
4a	gro-
4a	-ßem
4a	Streit
4a	und
=14	=14
4a	Ta-
4cc	-pfer-
4a}	-keit
{4a	trag'n
=15	=15
4cc	wir
4b-	den
4g	Sieg
4cc	da-
=16	=16
2a	-von.
4r}	.
==	==
!!!AGN: Soldaten - Lied
!!!ONB: ESAC (Essen Associative Code) Database: ZUCCAL
!!!AMT: simple quadruple
!!!AIN: vox
!!!EED: Helmut Schaffrath
!!!EEV: 1.0
!!!GTL: III. Soldaten-, Jaeger-, Schiffer-, Fuhrmanns- und Handwerks-Lieder.
!!!URL-scan: https://www.digitale-sammlungen.de/de/view/bsb11160571?page=381
!!!ENC: Anna Maria Matuszewska
!!!EEV: 2025/01/29
*-	*-
